X: 1507
T: Mollie McCarthy   #2
T: maire ni .mic car.tai.g.
R: reel
%S: s:2 b:10(5+5)
B: O'Neill's "Music of Ireland" 1850 #1507
O: Kennedy
Z: John B. Walsh, walsh@math.ubc.ca 8/23/96
N: Compacted via repeat with multiple endings [JC]
M: C|
L: 1/8
K: D
|: DAFA DAFA | DAFA (GE)E2 | DAFA DFAF | dBAG (FD)D2 :: afdf gfed |
| gefd (Be)e2 |1 afdf gfed | (fa)eg (fd)d2 :|2 af{a}ge fdec | dBAG FDD2 |]
